X:1
T:Si vous maymez
T:Claudin de Sermisy
T:Source : Chansons musicales eslevées de plusieurs livres---Paris---P.Attaignant---1535/1536. Editor : André Vierendeels (03/05/18). Notes : Original clefs : C3, C4, F3 Original note values have been halved Editorial accidentals above the staff Square brackets indicate ligatures
T:b
T:Si vous maymez
T:©
T:©
T:©
C:Claudin de Sermisy
Z:©
%%score [ 1 2 3 ]
L:1/8
Q:1/4=120
M:2/2
K:F
V:1 treble-8 nm="Tenor 1" snm="T 1"
V:2 treble-8 nm="Tenor 2" snm="T 2"
V:3 bass nm="Bass" snm="B"
V:1
 z4 c4 | d2 d2 e4 | z2 c2 f2 f2 | d2 e3 d c2- | c2 B2 c4 | c4 B2 A2 | G4 z2 c2 | c2 B2 c4 | d4 e4 | %9
w: Si|vous may- mez,|don- nez moy|as- seu- * ran-|* * ce,|ou ie croi-|ray qu'a-|vec- ques faulx|sem- blant|
 z2 f4 d2 |"^b" e4 c2 c2 |"^b" d2 f2 e2 d2- | dc/B/ c2 d4 | z4 c4 | d2 d2 e4 | z2 c2 f2 f2 | %16
w: fai- gnez|may- mer, me|de- mon- strant sem-|* * * * blant|que|me vou- lez|con- ten- ter|
 d2 e3 d c2- | c2 B2 c4- | c4 c4 | d2 d2 e4 | z2 c2 f2 f2 |"^b" d2 e3 d c2- | c2 B2 c4- | c8 |] %24
w: des- pe- * ran-|* * ce,|_ que|me vou- lez|con- ten- ter|des- pe- * ran-|* * ce.|_|
V:2
 c4 A2 A2 | F2 F2 c2 c2 | A2 A2 d3 c | BA B2 cBAG | F4 G4 | F4 z2 c2- | c2 B2 A4 | G2 F2 G2 G2 | %8
w: Si vous may-|mez, don- nez moy|as- seu- ran- *|||ce, ou|_ ie croi-|ray qu'a- vec- ques|
 B2 A2 c2 c2- | c2 A2 dcBA | B4 A2 A2 | A2 A2 c2 F2- | F2 G2 A4 | z2 B2 A2 A2 | F2 F2 c2 c2 | %15
w: faulx sem- blant fai-|* gnez may- * * *|* mer, me|de- mon- strant sem-|* * blant|que me vou-|lez con- ten- ter|
 A2 A2 d3 c | BA B2 cBAG | F4 G4 | F2 c2 A2 A2 | F2 F2 c2 c2 | A2 A2 d3 c | BA B2 cBAG | F4 G4 | %23
w: des- pe- ran- *|||ce, que me vou-|les con- ten- ter|des- pe- ran- *|||
 F8 |] %24
w: ce.|
V:3
 z4 F,4 | D,2 D,2 C,2 C,2 | F,2 F,2 D,2 D,2 |"^b" G,3 F, E,2 F,2 | D,4 C,4 | F,4 z4 | z4 F,4 | %7
w: Si|vous may- mez, don-|nez moy as- seu-|ran- * * *||ce,|ou|
 E,2 D,2 C,2 C,2 | B,,2 D,2 C,2 C,2 | F,4 z2 G,2- |"^b" G,2 E,2 F,4 | D,2 D,2 C,2 B,,2 | %12
w: ie croi- ray qu'a-|vec- quee faulx sem-|blant fai-|* gnez may-|mer, me de- mon-|
"^b" D,2 E,2 D,4 | G,4 z2 F,2 | D,2 D,2 C,2 C,2 | F,2 F,2 D,2 D,2 |"^b" G,3 F, E,2 F,2 | D,4 C,4 | %18
w: strant sem- *|blant que|me vou- lez con-|ten- ter des- pe-|ran- * * *||
 F,4 z2 F,2 | D,2 D,2 C,2 C,2 | F,2 F,2 D,2 D,2 |"^b" G,3 F, E,2 F,2 | D,4 C,4 | F,8 |] %24
w: ce, que|me vou- lez con-|ten- ter des- pe-|ran- * * *||ce.|

